X:1
T:Oh Susanna
L:1/8
M:2/4
K:G
|:"G" Bd d>e |"Em" dB GA |"C" BB AG |"D" A3 G/A/ |
"G" Bd d>e |"Em" dB GA |"C" BB"D7" AA |"G" G4 ::
"C" c2 c2 |"C" ee- ee |"G" dd BG |"D7" A3 G/A/ |
"G" Bd d>e |"Em" dB GA |"C" BB"D7" AA |"G" G4 ::|]